polaris-icons/icons/new-icons/ArrowDownMinor.svg

<svg width="20" height="20" viewBox="0 0 20 20" fill="none" xmlns="http://www.w3.org/2000/svg">
<path fill-rule="evenodd" clip-rule="evenodd" d="M10 3.5C10.4142 3.5 10.75 3.83579 10.75 4.25V13.9396L13.4696 11.2197C13.7625 10.9268 14.2374 10.9268 14.5303 11.2196C14.8232 11.5125 14.8232 11.9874 14.5304 12.2803L10.5304 16.2807C10.3897 16.4214 10.1989 16.5004 10 16.5004C9.80107 16.5004 9.6103 16.4214 9.46964 16.2807L5.46964 12.2803C5.17676 11.9874 5.17679 11.5125 5.4697 11.2196C5.7626 10.9268 6.23748 10.9268 6.53036 11.2197L9.25 13.9396V4.25C9.25 3.83579 9.58579 3.5 10 3.5Z" fill="#4A4A4A"/>
</svg>

<svg viewBox="0 0 20 20" xmlns="http://www.w3.org/2000/svg"><path fill-rule="evenodd" d="M10 3.5a.75.75 0 0 1 .75.75v9.69l2.72-2.72a.75.75 0 0 1 1.06 1.06l-4 4a.75.75 0 0 1-1.06 0l-4-4a.75.75 0 0 1 1.06-1.06l2.72 2.72v-9.69a.75.75 0 0 1 .75-.75Z" fill="#5C5F62"/></svg>
